X: 21876
T: Kiss Me Sweetheart
R: jig
M: 6/8
K: Gmajor
|:c|B2G GFG|A2B cBA|B2G GBd|ecA ecA|
B2G GFG|A2B c2e|dBG gfe|dBG G2:|
|:A|B2c d2g|ece d2c|BGB dBd|ecA ecA|
B2c d2g|ece d2c|Bcd gfe|dBG G2:|

